src/components/Home/Features/assets/feature-balance.svg

<svg width="127" height="89" viewBox="0 0 127 89" fill="none" xmlns="http://www.w3.org/2000/svg">
<path d="M64.668 66.5244L53.2266 86.3425H76.1094L64.668 66.5244Z" fill="white"/>
<path fill-rule="evenodd" clip-rule="evenodd" d="M64.6683 64.8444C65.2685 64.8444 65.8231 65.1646 66.1232 65.6844L77.5646 85.5025C77.8647 86.0223 77.8647 86.6627 77.5646 87.1825C77.2645 87.7023 76.7099 88.0225 76.1097 88.0225H53.2269C52.6267 88.0225 52.0721 87.7023 51.772 87.1825C51.4719 86.6627 51.4718 86.0223 51.7719 85.5025L63.2133 65.6844C63.5134 65.1646 64.0681 64.8444 64.6683 64.8444ZM56.1366 84.6625H73.1999L64.6683 69.8845L56.1366 84.6625Z" fill="#010101"/>
<path d="M116.336 37.0477L8.87649 61.2254C5.631 61.9556 3.59158 65.177 4.32134 68.4204C5.05109 71.6639 8.27368 73.7012 11.5192 72.971L118.979 48.7933C122.224 48.0631 124.264 44.8418 123.534 41.5984C122.804 38.3549 119.582 36.3175 116.336 37.0477Z" fill="white"/>
<path fill-rule="evenodd" clip-rule="evenodd" d="M9.24525 62.8645C6.90399 63.3912 5.43448 65.7144 5.96035 68.0516C6.48622 70.3889 8.80913 71.8588 11.1504 71.332L118.61 47.1543C120.951 46.6275 122.421 44.3044 121.895 41.9671C121.369 39.6299 119.046 38.16 116.705 38.6868L9.24525 62.8645ZM2.6823 68.7892C1.74866 64.6395 4.35798 60.5201 8.50771 59.5864L115.968 35.4087C120.117 34.475 124.239 37.08 125.173 41.2296C126.107 45.3792 123.497 49.4987 119.348 50.4324L11.8879 74.6101C7.7382 75.5437 3.61593 72.9388 2.6823 68.7892Z" fill="#010101"/>
<path d="M72.7422 20.0777L96.3363 2L119.106 20.0777" fill="white"/>
<path fill-rule="evenodd" clip-rule="evenodd" d="M95.3149 0.666446C95.9263 0.197966 96.778 0.205314 97.3813 0.684275L120.151 18.762C120.877 19.3389 120.999 20.3957 120.422 21.1223C119.845 21.849 118.788 21.9704 118.061 21.3934L96.3183 4.13053L73.7644 21.4113C73.0279 21.9756 71.9733 21.836 71.409 21.0995C70.8447 20.363 70.9843 19.3085 71.7208 18.7442L95.3149 0.666446Z" fill="#010101"/>
<path d="M77.75 16.5212V45.2306H113.345V15.8023" fill="white"/>
<path fill-rule="evenodd" clip-rule="evenodd" d="M113.346 14.1223C114.274 14.1223 115.026 14.8745 115.026 15.8023V45.2306C115.026 46.1585 114.274 46.9106 113.346 46.9106H77.7503C76.8225 46.9106 76.0703 46.1585 76.0703 45.2306V16.5212C76.0703 15.5933 76.8225 14.8412 77.7503 14.8412C78.6782 14.8412 79.4303 15.5933 79.4303 16.5212V43.5506H111.666V15.8023C111.666 14.8745 112.418 14.1223 113.346 14.1223Z" fill="#010101"/>
<path d="M102.481 26.6081H89.3594V45.2306H102.481V26.6081Z" fill="white"/>
<path fill-rule="evenodd" clip-rule="evenodd" d="M87.6797 26.6081C87.6797 25.6803 88.4318 24.9281 89.3597 24.9281H102.481C103.409 24.9281 104.161 25.6803 104.161 26.6081V45.2306C104.161 46.1585 103.409 46.9106 102.481 46.9106H89.3597C88.4318 46.9106 87.6797 46.1585 87.6797 45.2306V26.6081ZM91.0397 28.2881V43.5506H100.801V28.2881H91.0397Z" fill="#010101"/>
<path d="M28.6193 62.6274C39.226 62.6274 47.8245 54.0289 47.8245 43.4222C47.8245 32.8154 39.226 24.217 28.6193 24.217C18.0125 24.217 9.41406 32.8154 9.41406 43.4222C9.41406 54.0289 18.0125 62.6274 28.6193 62.6274Z" fill="#B69538"/>
<path fill-rule="evenodd" clip-rule="evenodd" d="M28.6196 25.897C18.9407 25.897 11.0944 33.7433 11.0944 43.4222C11.0944 53.1011 18.9407 60.9474 28.6196 60.9474C38.2985 60.9474 46.1448 53.1011 46.1448 43.4222C46.1448 33.7433 38.2985 25.897 28.6196 25.897ZM7.73438 43.4222C7.73438 31.8876 17.085 22.537 28.6196 22.537C40.1542 22.537 49.5048 31.8876 49.5048 43.4222C49.5048 54.9568 40.1542 64.3074 28.6196 64.3074C17.085 64.3074 7.73438 54.9568 7.73438 43.4222Z" fill="#010101"/>
<path d="M27.6343 48.3029H29.6018C30.1207 48.299 30.6176 48.0927 30.9865 47.7278C31.1689 47.547 31.3136 47.3319 31.4124 47.0948C31.5111 46.8578 31.562 46.6036 31.562 46.3468C31.562 46.09 31.5111 45.8358 31.4124 45.5987C31.3136 45.3617 31.1689 45.1466 30.9865 44.9658C30.6168 44.603 30.1198 44.3993 29.6018 44.3983H27.6343C27.1199 44.4003 26.6102 44.3008 26.1343 44.1056C25.6584 43.9103 25.2257 43.6231 24.8609 43.2604C24.4961 42.8978 24.2064 42.4667 24.0084 41.992C23.8104 41.5172 23.708 41.0081 23.707 40.4937C23.7071 39.9813 23.8088 39.474 24.0062 39.0012C24.2037 38.5285 24.4929 38.0995 24.8572 37.7393C25.2223 37.3756 25.6555 37.0875 26.132 36.8914C26.6085 36.6954 27.1191 36.5952 27.6343 36.5966V35.6205C27.6344 35.4924 27.6598 35.3656 27.7091 35.2474C27.7585 35.1292 27.8308 35.0219 27.9219 34.9319C28.0123 34.8392 28.1206 34.7659 28.2403 34.7165C28.36 34.667 28.4886 34.6425 28.618 34.6443C28.7473 34.6438 28.8755 34.6689 28.995 34.7183C29.1145 34.7676 29.223 34.8402 29.3142 34.9319C29.4053 35.0219 29.4776 35.1292 29.527 35.2474C29.5763 35.3656 29.6017 35.4924 29.6018 35.6205V36.5966C30.6418 36.5971 31.6397 37.0076 32.3789 37.7393C32.7432 38.0995 33.0324 38.5285 33.2299 39.0012C33.4273 39.474 33.529 39.9813 33.5291 40.4937C33.5291 40.7546 33.4254 41.0048 33.241 41.1892C33.0565 41.3737 32.8063 41.4774 32.5454 41.4774C32.2845 41.4774 32.0342 41.3737 31.8498 41.1892C31.6653 41.0048 31.5616 40.7546 31.5616 40.4937C31.562 40.2374 31.5113 39.9837 31.4126 39.7472C31.3139 39.5107 31.169 39.2964 30.9865 39.1165C30.6176 38.7516 30.1207 38.5452 29.6018 38.5414H27.6343C27.113 38.544 26.6133 38.7504 26.242 39.1165C26.0596 39.2973 25.9149 39.5124 25.8161 39.7494C25.7174 39.9864 25.6665 40.2407 25.6665 40.4974C25.6665 40.7542 25.7174 41.0085 25.8161 41.2455C25.9149 41.4825 26.0596 41.6976 26.242 41.8784C26.614 42.2424 27.1139 42.4461 27.6343 42.446H29.6018C30.6418 42.4464 31.6397 42.857 32.3789 43.5886C32.7433 43.9495 33.0327 44.3791 33.2301 44.8526C33.4275 45.326 33.5292 45.8339 33.5292 46.3468C33.5292 46.8597 33.4275 47.3676 33.2301 47.841C33.0327 48.3144 32.7433 48.744 32.3789 49.105C31.6397 49.8366 30.6418 50.2472 29.6018 50.2476V51.254C29.6017 51.3821 29.5763 51.5089 29.527 51.6271C29.4776 51.7453 29.4053 51.8525 29.3142 51.9426C29.223 52.0343 29.1145 52.1069 28.995 52.1563C28.8755 52.2056 28.7473 52.2307 28.618 52.2302C28.4886 52.232 28.36 52.2075 28.2403 52.1581C28.1206 52.1086 28.0123 52.0353 27.9219 51.9426C27.8308 51.8525 27.7585 51.7453 27.7091 51.6271C27.6598 51.5089 27.6344 51.3821 27.6343 51.254V50.2779C27.1191 50.2793 26.6085 50.1791 26.132 49.983C25.6555 49.787 25.2223 49.4989 24.8572 49.1353C24.4929 48.775 24.2037 48.3461 24.0062 47.8733C23.8088 47.4005 23.7071 46.8932 23.707 46.3808C23.7087 46.1224 23.812 45.8751 23.9946 45.6923C24.1321 45.5574 24.3061 45.4659 24.4951 45.4291C24.6841 45.3923 24.8798 45.4117 25.0578 45.485C25.2359 45.5583 25.3885 45.6823 25.4968 45.8415C25.605 46.0008 25.6642 46.1883 25.6669 46.3808C25.6694 46.8978 25.8761 47.3928 26.242 47.7581C26.6181 48.113 27.1172 48.3083 27.6343 48.3029Z" fill="#010101"/>
</svg>

<svg width="127" height="89" fill="none" xmlns="http://www.w3.org/2000/svg"><path d="M64.668 66.524L53.227 86.343h22.882L64.668 66.523z" fill="#fff"/><path fill-rule="evenodd" clip-rule="evenodd" d="M64.668 64.844c.6 0 1.155.32 1.455.84l11.442 19.819a1.68 1.68 0 0 1-1.455 2.52H53.227a1.68 1.68 0 0 1-1.455-2.52l11.441-19.819c.3-.52.855-.84 1.455-.84zm-8.531 19.819H73.2l-8.532-14.778-8.531 14.777z" fill="#010101"/><path d="M116.336 37.048L8.876 61.225a6.022 6.022 0 0 0-4.555 7.195 6.021 6.021 0 0 0 7.198 4.551l107.46-24.178a6.022 6.022 0 0 0 4.555-7.195 6.022 6.022 0 0 0-7.198-4.55z" fill="#fff"/><path fill-rule="evenodd" clip-rule="evenodd" d="M9.245 62.864a4.341 4.341 0 0 0-3.285 5.188 4.341 4.341 0 0 0 5.19 3.28l107.46-24.178a4.342 4.342 0 0 0 3.285-5.187 4.342 4.342 0 0 0-5.19-3.28L9.245 62.865zM2.682 68.79a7.702 7.702 0 0 1 5.826-9.203l107.46-24.177a7.701 7.701 0 0 1 9.205 5.82 7.702 7.702 0 0 1-5.825 9.203L11.888 74.61a7.702 7.702 0 0 1-9.206-5.82z" fill="#010101"/><path d="M72.742 20.078L96.336 2l22.77 18.078" fill="#fff"/><path fill-rule="evenodd" clip-rule="evenodd" d="M95.315.666a1.68 1.68 0 0 1 2.066.018l22.77 18.078a1.68 1.68 0 0 1-2.09 2.631L96.318 4.131 73.764 21.41a1.68 1.68 0 0 1-2.043-2.667L95.315.666z" fill="#010101"/><path d="M77.75 16.521v28.71h35.595V15.802" fill="#fff"/><path fill-rule="evenodd" clip-rule="evenodd" d="M113.346 14.122c.928 0 1.68.752 1.68 1.68v29.429a1.68 1.68 0 0 1-1.68 1.68H77.75a1.68 1.68 0 0 1-1.68-1.68V16.52a1.68 1.68 0 1 1 3.36 0v27.03h32.236V15.802c0-.928.752-1.68 1.68-1.68z" fill="#010101"/><path d="M102.481 26.608H89.359v18.623h13.122V26.608z" fill="#fff"/><path fill-rule="evenodd" clip-rule="evenodd" d="M87.68 26.608c0-.928.752-1.68 1.68-1.68h13.121c.928 0 1.68.752 1.68 1.68v18.623a1.68 1.68 0 0 1-1.68 1.68H89.36a1.68 1.68 0 0 1-1.68-1.68V26.608zm3.36 1.68v15.263h9.761V28.288H91.04z" fill="#010101"/><path d="M28.62 62.627c10.606 0 19.204-8.598 19.204-19.205 0-10.607-8.598-19.205-19.205-19.205-10.607 0-19.205 8.598-19.205 19.205 0 10.607 8.598 19.205 19.205 19.205z" fill="#B69538"/><path fill-rule="evenodd" clip-rule="evenodd" d="M28.62 25.897c-9.68 0-17.526 7.846-17.526 17.525 0 9.68 7.847 17.525 17.526 17.525 9.678 0 17.525-7.846 17.525-17.525 0-9.679-7.847-17.525-17.525-17.525zM7.734 43.422c0-11.534 9.351-20.885 20.886-20.885 11.534 0 20.885 9.35 20.885 20.885 0 11.535-9.35 20.885-20.885 20.885-11.535 0-20.886-9.35-20.886-20.885z" fill="#010101"/><path d="M27.634 48.303h1.968a1.99 1.99 0 0 0 1.384-.575 1.944 1.944 0 0 0 0-2.762 1.982 1.982 0 0 0-1.384-.568h-1.968a3.913 3.913 0 0 1-3.927-3.904 3.876 3.876 0 0 1 1.15-2.755 3.92 3.92 0 0 1 2.777-1.142v-.977a.971.971 0 0 1 .288-.688.952.952 0 0 1 .696-.288.977.977 0 0 1 .909.603c.05.119.075.245.075.373v.977a3.95 3.95 0 0 1 2.777 1.142 3.876 3.876 0 0 1 1.15 2.755.984.984 0 0 1-1.967 0 1.93 1.93 0 0 0-.576-1.377 1.99 1.99 0 0 0-1.384-.576h-1.968a1.997 1.997 0 0 0-1.392.576 1.945 1.945 0 0 0 0 2.761 1.99 1.99 0 0 0 1.392.568h1.968a3.95 3.95 0 0 1 2.777 1.143 3.881 3.881 0 0 1 0 5.516 3.95 3.95 0 0 1-2.777 1.143v1.006a.971.971 0 0 1-.288.689.976.976 0 0 1-.696.287.956.956 0 0 1-.696-.287.97.97 0 0 1-.288-.689v-.976a3.92 3.92 0 0 1-3.628-2.405c-.197-.472-.299-.98-.299-1.492a.983.983 0 0 1 .288-.689.983.983 0 0 1 1.672.689 1.96 1.96 0 0 0 .575 1.377c.376.355.875.55 1.392.545z" fill="#010101"/></svg>
